la/globe-solid.svg

<svg xmlns="http://www.w3.org/2000/svg" viewBox="0 0 32 32" height="1em" width="1em">
  <path d="M 16 4 C 9.382813 4 4 9.382813 4 16 C 4 22.617188 9.382813 28 16 28 C 22.617188 28 28 22.617188 28 16 C 28 9.382813 22.617188 4 16 4 Z M 16 6 C 17.96875 6 19.796875 6.585938 21.34375 7.5625 L 20.53125 7.65625 L 20.71875 9.65625 L 19.65625 9.1875 L 18.78125 9.9375 L 18.9375 12 L 21.09375 11.3125 L 23.78125 12.1875 L 23.09375 13.4375 L 21.46875 12.4375 L 19.71875 12.6875 L 18 13.96875 L 17.03125 16.96875 L 18.96875 18.5625 C 18.96875 18.5625 20.957031 18.21875 21.0625 18.21875 C 21.167969 18.21875 21.90625 20.03125 21.90625 20.03125 L 20.3125 25.03125 C 19.011719 25.652344 17.542969 26 16 26 C 15.683594 26 15.371094 25.964844 15.0625 25.9375 L 13.96875 24.03125 L 15.03125 20.03125 L 11 17 L 7.28125 17 L 6.3125 15.03125 L 9 12.90625 L 13 11 L 12.40625 8.34375 L 14.125 7.96875 L 14.9375 9.09375 L 17.9375 8.53125 L 17.40625 6.21875 L 15.1875 6.0625 C 15.453125 6.042969 15.726563 6 16 6 Z M 14.875 6.0625 L 13.3125 6.71875 L 12.5625 6.59375 C 13.300781 6.324219 14.066406 6.152344 14.875 6.0625 Z M 6.0625 16.78125 L 7.03125 17.90625 L 7.03125 19.96875 L 8.90625 22.03125 L 10.0625 22.03125 L 12.90625 25.53125 C 9.132813 24.308594 6.378906 20.890625 6.0625 16.78125 Z"/>
</svg>

<svg xmlns="http://www.w3.org/2000/svg" viewBox="0 0 32 32" height="1em" width="1em">
  <path d="M16 4C9.383 4 4 9.383 4 16s5.383 12 12 12 12-5.383 12-12S22.617 4 16 4Zm0 2a9.98 9.98 0 0 1 5.344 1.563l-.813.093.188 2-1.063-.469-.875.75.157 2.063 2.156-.688 2.687.876-.687 1.25-1.625-1-1.75.25L18 13.967l-.969 3 1.938 1.595s1.988-.344 2.093-.344c.106 0 .844 1.812.844 1.812l-1.593 5c-1.301.621-2.77.969-4.313.969-.316 0-.629-.035-.938-.063l-1.093-1.906 1.062-4L11 17H7.281l-.968-1.969L9 12.906 13 11l-.594-2.656 1.719-.375.813 1.125 3-.563-.532-2.312-2.218-.157C15.453 6.043 15.726 6 16 6Zm-1.125.063-1.563.656-.75-.125a9.867 9.867 0 0 1 2.313-.532ZM6.062 16.78l.97 1.125v2.063l1.874 2.062h1.156l2.844 3.5c-3.773-1.222-6.527-4.64-6.844-8.75Z"/>
</svg>
